src/resources/images/licenses/rights-reserved.svg

<?xml version="1.0" encoding="UTF-8"?>
<svg viewBox="0 0 120 42" xmlns="http://www.w3.org/2000/svg">
<defs>
<style>.cls-1 {
                fill: #abb2ac;
                stroke: #231f20;
                stroke-miterlimit: 10;
                stroke-width: 0.9px;
            }
            .cls-2 {
                fill: #010101;
            }
            .cls-3 {
                fill: #231f20;
            }
            .cls-4 {
                fill: #fff;
            }</style>
</defs>
<g data-name="Layer 2">
<g data-name="Layer 1">
<rect class="cls-1" x=".45" y=".45" width="118.22" height="40.69" rx="1.98"/>
<path class="cls-2" d="m35.18 9.69a15.12 15.12 0 0 1 4.53 11.11 14.82 14.82 0 0 1-4.45 11 15.42 15.42 0 0 1-11.19 4.66 15 15 0 0 1-11-4.62 15 15 0 0 1-4.62-11 15.3 15.3 0 0 1 4.64-11.15 14.88 14.88 0 0 1 11-4.54 15.14 15.14 0 0 1 11.09 4.54zm-20.06 2a12.53 12.53 0 0 0-3.83 9.08 12.29 12.29 0 0 0 3.79 9 12.37 12.37 0 0 0 9 3.79 12.55 12.55 0 0 0 9.11-3.83 11.93 11.93 0 0 0 3.68-9 12.34 12.34 0 0 0-3.74-9.09 12.32 12.32 0 0 0-9-3.74 12.12 12.12 0 0 0-9.01 3.82z"/>
<path class="cls-3" d="M53.38,10.79a1.56,1.56,0,0,1,.6.45,2.06,2.06,0,0,1,.33.55,1.79,1.79,0,0,1,.12.68,2,2,0,0,1-.23.91,1.4,1.4,0,0,1-.77.63,1.22,1.22,0,0,1,.63.51,2.06,2.06,0,0,1,.19,1V16a4,4,0,0,0,0,.6.55.55,0,0,0,.25.37v.16H53c0-.14-.07-.26-.09-.35a4.87,4.87,0,0,1-.06-.55v-.61a1.22,1.22,0,0,0-.22-.82,1.08,1.08,0,0,0-.77-.21H50.58V17.1H49.26V10.62h3.09A2.92,2.92,0,0,1,53.38,10.79Zm-2.8,1v1.74H52a1.61,1.61,0,0,0,.66-.11.73.73,0,0,0,.38-.73.82.82,0,0,0-.37-.79,1.45,1.45,0,0,0-.63-.11Z"/>
<path class="cls-3" d="M57,17.1H55.61V10.62H57Z"/>
<path class="cls-3" d="M62.58,12.65a1.24,1.24,0,0,0-.75-.93,1.78,1.78,0,0,0-.74-.15,1.63,1.63,0,0,0-1.29.59,2.68,2.68,0,0,0-.5,1.78,2.24,2.24,0,0,0,.54,1.69,1.81,1.81,0,0,0,1.24.49,1.61,1.61,0,0,0,1.12-.39,1.64,1.64,0,0,0,.53-1H61.24V13.62h2.69V17.1H63l-.14-.81a3.08,3.08,0,0,1-.7.65,2.49,2.49,0,0,1-1.32.33,2.76,2.76,0,0,1-2.11-.89,3.42,3.42,0,0,1-.86-2.45,3.57,3.57,0,0,1,.87-2.52,2.93,2.93,0,0,1,2.29-.95,3,3,0,0,1,2,.62,2.32,2.32,0,0,1,.86,1.57Z"/>
<path class="cls-3" d="m65.22 17.1v-6.48h1.34v2.47h2.52v-2.47h1.34v6.48h-1.34v-2.89h-2.52v2.89z"/>
<path class="cls-3" d="m76.43 10.62v1.15h-1.94v5.33h-1.36v-5.33h-1.95v-1.15z"/>
<path class="cls-3" d="M78.2,15.1a1.35,1.35,0,0,0,.24.67,1.47,1.47,0,0,0,1.16.39,2.49,2.49,0,0,0,.79-.1.76.76,0,0,0,.58-.75.55.55,0,0,0-.28-.5,3.32,3.32,0,0,0-.9-.3l-.7-.16a4.23,4.23,0,0,1-1.42-.49,1.58,1.58,0,0,1-.66-1.4A1.85,1.85,0,0,1,77.65,11a2.76,2.76,0,0,1,1.88-.58A2.91,2.91,0,0,1,81.3,11a1.9,1.9,0,0,1,.77,1.57h-1.3a1,1,0,0,0-.52-.83,1.8,1.8,0,0,0-.81-.16,1.56,1.56,0,0,0-.86.21.68.68,0,0,0-.32.59.57.57,0,0,0,.32.52,4.64,4.64,0,0,0,.86.27l1.14.26a3,3,0,0,1,1.12.47,1.62,1.62,0,0,1,.58,1.33,1.85,1.85,0,0,1-.69,1.47,2.9,2.9,0,0,1-1.94.59,3.14,3.14,0,0,1-2-.58,1.89,1.89,0,0,1-.73-1.59Z"/>
<path class="cls-3" d="M53.38,21.59A1.56,1.56,0,0,1,54,22a2.06,2.06,0,0,1,.33.55,1.79,1.79,0,0,1,.12.68,2,2,0,0,1-.23.91,1.4,1.4,0,0,1-.77.63,1.22,1.22,0,0,1,.63.51,2.06,2.06,0,0,1,.19,1v.44a4,4,0,0,0,0,.6.55.55,0,0,0,.25.37v.16H53c0-.14-.07-.26-.09-.35a4.87,4.87,0,0,1-.06-.55v-.61a1.2,1.2,0,0,0-.22-.82,1.08,1.08,0,0,0-.77-.21H50.58V27.9H49.26V21.42h3.09A2.92,2.92,0,0,1,53.38,21.59Zm-2.8,1v1.74H52a1.61,1.61,0,0,0,.66-.11.73.73,0,0,0,.38-.73.82.82,0,0,0-.37-.79,1.45,1.45,0,0,0-.63-.11Z"/>
<path class="cls-3" d="M60.51,22.57H57.09V24h3.14v1.12H57.09v1.67h3.58V27.9H55.76V21.42h4.75Z"/>
<path class="cls-3" d="M62.7,25.9a1.34,1.34,0,0,0,.25.67A1.45,1.45,0,0,0,64.1,27a2.56,2.56,0,0,0,.8-.1.77.77,0,0,0,.58-.75.56.56,0,0,0-.29-.5,3.32,3.32,0,0,0-.9-.3l-.7-.16a4.32,4.32,0,0,1-1.42-.49,1.57,1.57,0,0,1-.65-1.4,1.85,1.85,0,0,1,.64-1.45A2.73,2.73,0,0,1,64,21.23a2.91,2.91,0,0,1,1.77.55,1.89,1.89,0,0,1,.76,1.57h-1.3a.91.91,0,0,0-.52-.83,1.77,1.77,0,0,0-.81-.16,1.53,1.53,0,0,0-.85.21.68.68,0,0,0-.32.59.56.56,0,0,0,.31.52,5.25,5.25,0,0,0,.86.27l1.14.26a3,3,0,0,1,1.12.47A1.59,1.59,0,0,1,66.78,26a1.85,1.85,0,0,1-.69,1.47,2.87,2.87,0,0,1-1.93.59,3.15,3.15,0,0,1-2-.58,1.92,1.92,0,0,1-.73-1.59Z"/>
<path class="cls-3" d="M72.52,22.57H69.09V24h3.15v1.12H69.09v1.67h3.59V27.9H67.77V21.42h4.75Z"/>
<path class="cls-3" d="M77.88,21.59a1.52,1.52,0,0,1,.61.45,2.06,2.06,0,0,1,.33.55,1.79,1.79,0,0,1,.12.68,1.91,1.91,0,0,1-.24.91,1.33,1.33,0,0,1-.77.63,1.24,1.24,0,0,1,.64.51,2.18,2.18,0,0,1,.19,1v.44a4,4,0,0,0,0,.6.55.55,0,0,0,.25.37v.16H77.55c0-.14-.07-.26-.09-.35A3.31,3.31,0,0,1,77.4,27v-.61a1.16,1.16,0,0,0-.21-.82,1.08,1.08,0,0,0-.77-.21H75.09V27.9H73.76V21.42h3.1A2.86,2.86,0,0,1,77.88,21.59Zm-2.79,1v1.74h1.45a1.52,1.52,0,0,0,.65-.11.72.72,0,0,0,.39-.73.84.84,0,0,0-.37-.79,1.45,1.45,0,0,0-.63-.11Z"/>
<path class="cls-3" d="M83.86,21.42h1.41L83.06,27.9H81.78l-2.19-6.48H81l1.41,4.92Z"/>
<path class="cls-3" d="M90.87,22.57H87.44V24h3.15v1.12H87.44v1.67H91V27.9H86.12V21.42h4.75Z"/>
<path class="cls-3" d="M95.88,21.56a2.15,2.15,0,0,1,1.1.83,2.77,2.77,0,0,1,.46,1,5.16,5.16,0,0,1,.12,1.07,4.35,4.35,0,0,1-.51,2.19,2.35,2.35,0,0,1-2.18,1.21H92.08V21.42h2.79A4,4,0,0,1,95.88,21.56Zm-2.49,1v4.23h1.25a1.35,1.35,0,0,0,1.34-1,3.26,3.26,0,0,0,.21-1.23,3,3,0,0,0-.31-1.52,1.33,1.33,0,0,0-1.24-.53Z"/>
<circle class="cls-4" cx="24.09" cy="20.8" r="12.79"/>
<circle class="cls-2" cx="24.09" cy="27.8" r="2"/>
<path class="cls-2" d="m22.09 11.8h4v12h-4z"/>
</g>
</g>
</svg>

<svg xmlns="http://www.w3.org/2000/svg" height="42" width="120">
    <defs>
        <style>
            .cls-1 {
                fill: #abb2ac;
                stroke: #231f20;
                stroke-miterlimit: 10;
                stroke-width: 0.9px;
            }
            .cls-2 {
                fill: #010101;
            }
            .cls-3 {
                fill: #231f20;
            }
            .cls-4 {
                fill: #fff;
            }
        </style>
    </defs>
    <g id="Layer_2" data-name="Layer 2">
        <g id="Layer_1-2" data-name="Layer 1">
            <rect class="cls-1" x="0.45" y="0.45" width="118.22" height="40.69" rx="1.98"/>
            <g id="g5706">
                <path id="path5708" class="cls-2" d="M35.18,9.69A15.12,15.12,0,0,1,39.71,20.8a14.82,14.82,0,0,1-4.45,11,15.42,15.42,0,0,1-11.19,4.66,15,15,0,0,1-11-4.62,15,15,0,0,1-4.62-11A15.3,15.3,0,0,1,13.09,9.69a14.88,14.88,0,0,1,11-4.54A15.14,15.14,0,0,1,35.18,9.69Zm-20.06,2a12.53,12.53,0,0,0-3.83,9.08,12.29,12.29,0,0,0,3.79,9,12.37,12.37,0,0,0,9,3.79,12.55,12.55,0,0,0,9.11-3.83,11.93,11.93,0,0,0,3.68-9,12.34,12.34,0,0,0-3.74-9.09,12.32,12.32,0,0,0-9-3.74A12.12,12.12,0,0,0,15.12,11.72Z"/>
            </g>
            <path class="cls-3" d="M53.38,10.79a1.56,1.56,0,0,1,.6.45,2.06,2.06,0,0,1,.33.55,1.79,1.79,0,0,1,.12.68,2,2,0,0,1-.23.91,1.4,1.4,0,0,1-.77.63,1.22,1.22,0,0,1,.63.51,2.06,2.06,0,0,1,.19,1V16a4,4,0,0,0,0,.6.55.55,0,0,0,.25.37v.16H53c0-.14-.07-.26-.09-.35a4.87,4.87,0,0,1-.06-.55v-.61a1.22,1.22,0,0,0-.22-.82,1.08,1.08,0,0,0-.77-.21H50.58V17.1H49.26V10.62h3.09A2.92,2.92,0,0,1,53.38,10.79Zm-2.8,1v1.74H52a1.61,1.61,0,0,0,.66-.11.73.73,0,0,0,.38-.73.82.82,0,0,0-.37-.79,1.45,1.45,0,0,0-.63-.11Z"/>
            <path class="cls-3" d="M57,17.1H55.61V10.62H57Z"/>
            <path class="cls-3" d="M62.58,12.65a1.24,1.24,0,0,0-.75-.93,1.78,1.78,0,0,0-.74-.15,1.63,1.63,0,0,0-1.29.59,2.68,2.68,0,0,0-.5,1.78,2.24,2.24,0,0,0,.54,1.69,1.81,1.81,0,0,0,1.24.49,1.61,1.61,0,0,0,1.12-.39,1.64,1.64,0,0,0,.53-1H61.24V13.62h2.69V17.1H63l-.14-.81a3.08,3.08,0,0,1-.7.65,2.49,2.49,0,0,1-1.32.33,2.76,2.76,0,0,1-2.11-.89,3.42,3.42,0,0,1-.86-2.45,3.57,3.57,0,0,1,.87-2.52,2.93,2.93,0,0,1,2.29-.95,3,3,0,0,1,2,.62,2.32,2.32,0,0,1,.86,1.57Z"/>
            <path class="cls-3" d="M65.22,17.1V10.62h1.34v2.47h2.52V10.62h1.34V17.1H69.08V14.21H66.56V17.1Z"/>
            <path class="cls-3" d="M76.43,10.62v1.15H74.49V17.1H73.13V11.77H71.18V10.62Z"/>
            <path class="cls-3" d="M78.2,15.1a1.35,1.35,0,0,0,.24.67,1.47,1.47,0,0,0,1.16.39,2.49,2.49,0,0,0,.79-.1.76.76,0,0,0,.58-.75.55.55,0,0,0-.28-.5,3.32,3.32,0,0,0-.9-.3l-.7-.16a4.23,4.23,0,0,1-1.42-.49,1.58,1.58,0,0,1-.66-1.4A1.85,1.85,0,0,1,77.65,11a2.76,2.76,0,0,1,1.88-.58A2.91,2.91,0,0,1,81.3,11a1.9,1.9,0,0,1,.77,1.57h-1.3a1,1,0,0,0-.52-.83,1.8,1.8,0,0,0-.81-.16,1.56,1.56,0,0,0-.86.21.68.68,0,0,0-.32.59.57.57,0,0,0,.32.52,4.64,4.64,0,0,0,.86.27l1.14.26a3,3,0,0,1,1.12.47,1.62,1.62,0,0,1,.58,1.33,1.85,1.85,0,0,1-.69,1.47,2.9,2.9,0,0,1-1.94.59,3.14,3.14,0,0,1-2-.58,1.89,1.89,0,0,1-.73-1.59Z"/>
            <path class="cls-3" d="M53.38,21.59A1.56,1.56,0,0,1,54,22a2.06,2.06,0,0,1,.33.55,1.79,1.79,0,0,1,.12.68,2,2,0,0,1-.23.91,1.4,1.4,0,0,1-.77.63,1.22,1.22,0,0,1,.63.51,2.06,2.06,0,0,1,.19,1v.44a4,4,0,0,0,0,.6.55.55,0,0,0,.25.37v.16H53c0-.14-.07-.26-.09-.35a4.87,4.87,0,0,1-.06-.55v-.61a1.2,1.2,0,0,0-.22-.82,1.08,1.08,0,0,0-.77-.21H50.58V27.9H49.26V21.42h3.09A2.92,2.92,0,0,1,53.38,21.59Zm-2.8,1v1.74H52a1.61,1.61,0,0,0,.66-.11.73.73,0,0,0,.38-.73.82.82,0,0,0-.37-.79,1.45,1.45,0,0,0-.63-.11Z"/>
            <path class="cls-3" d="M60.51,22.57H57.09V24h3.14v1.12H57.09v1.67h3.58V27.9H55.76V21.42h4.75Z"/>
            <path class="cls-3" d="M62.7,25.9a1.34,1.34,0,0,0,.25.67A1.45,1.45,0,0,0,64.1,27a2.56,2.56,0,0,0,.8-.1.77.77,0,0,0,.58-.75.56.56,0,0,0-.29-.5,3.32,3.32,0,0,0-.9-.3l-.7-.16a4.32,4.32,0,0,1-1.42-.49,1.57,1.57,0,0,1-.65-1.4,1.85,1.85,0,0,1,.64-1.45A2.73,2.73,0,0,1,64,21.23a2.91,2.91,0,0,1,1.77.55,1.89,1.89,0,0,1,.76,1.57h-1.3a.91.91,0,0,0-.52-.83,1.77,1.77,0,0,0-.81-.16,1.53,1.53,0,0,0-.85.21.68.68,0,0,0-.32.59.56.56,0,0,0,.31.52,5.25,5.25,0,0,0,.86.27l1.14.26a3,3,0,0,1,1.12.47A1.59,1.59,0,0,1,66.78,26a1.85,1.85,0,0,1-.69,1.47,2.87,2.87,0,0,1-1.93.59,3.15,3.15,0,0,1-2-.58,1.92,1.92,0,0,1-.73-1.59Z"/>
            <path class="cls-3" d="M72.52,22.57H69.09V24h3.15v1.12H69.09v1.67h3.59V27.9H67.77V21.42h4.75Z"/>
            <path class="cls-3" d="M77.88,21.59a1.52,1.52,0,0,1,.61.45,2.06,2.06,0,0,1,.33.55,1.79,1.79,0,0,1,.12.68,1.91,1.91,0,0,1-.24.91,1.33,1.33,0,0,1-.77.63,1.24,1.24,0,0,1,.64.51,2.18,2.18,0,0,1,.19,1v.44a4,4,0,0,0,0,.6.55.55,0,0,0,.25.37v.16H77.55c0-.14-.07-.26-.09-.35A3.31,3.31,0,0,1,77.4,27v-.61a1.16,1.16,0,0,0-.21-.82,1.08,1.08,0,0,0-.77-.21H75.09V27.9H73.76V21.42h3.1A2.86,2.86,0,0,1,77.88,21.59Zm-2.79,1v1.74h1.45a1.52,1.52,0,0,0,.65-.11.72.72,0,0,0,.39-.73.84.84,0,0,0-.37-.79,1.45,1.45,0,0,0-.63-.11Z"/>
            <path class="cls-3" d="M83.86,21.42h1.41L83.06,27.9H81.78l-2.19-6.48H81l1.41,4.92Z"/>
            <path class="cls-3" d="M90.87,22.57H87.44V24h3.15v1.12H87.44v1.67H91V27.9H86.12V21.42h4.75Z"/>
            <path class="cls-3" d="M95.88,21.56a2.15,2.15,0,0,1,1.1.83,2.77,2.77,0,0,1,.46,1,5.16,5.16,0,0,1,.12,1.07,4.35,4.35,0,0,1-.51,2.19,2.35,2.35,0,0,1-2.18,1.21H92.08V21.42h2.79A4,4,0,0,1,95.88,21.56Zm-2.49,1v4.23h1.25a1.35,1.35,0,0,0,1.34-1,3.26,3.26,0,0,0,.21-1.23,3,3,0,0,0-.31-1.52,1.33,1.33,0,0,0-1.24-.53Z"/>
            <circle class="cls-4" cx="24.09" cy="20.8" r="12.79"/>
            <circle class="cls-2" cx="24.09" cy="27.8" r="2"/>
            <path class="cls-2" d="M22.09,11.8h4v12h-4Z"/>
        </g>
    </g>
</svg>
